svg/color/if.svg

<?xml version="1.0" encoding="UTF-8" ?>
<!DOCTYPE svg PUBLIC "-//W3C//DTD SVG 1.1//EN" "http://www.w3.org/Graphics/SVG/1.1/DTD/svg11.dtd">
<svg width="249pt" height="250pt" viewBox="0 0 249 250" version="1.1" xmlns="http://www.w3.org/2000/svg">
<g id="#ffffffff">
<path fill="#ffffff" opacity="1.00" d=" M 0.00 0.00 L 249.00 0.00 L 249.00 250.00 L 0.00 250.00 L 0.00 0.00 M 120.11 5.80 C 93.95 7.20 68.26 17.22 48.46 34.44 C 26.63 53.02 12.03 79.83 8.18 108.23 C 5.18 130.63 8.17 153.92 17.66 174.50 C 29.51 200.89 51.41 222.59 77.93 234.16 C 96.98 242.58 118.26 245.84 138.95 243.61 C 164.64 241.17 189.38 229.87 208.14 212.17 C 226.03 195.53 238.52 173.22 243.37 149.27 C 248.10 125.98 245.95 101.26 236.81 79.29 C 226.60 54.29 207.51 33.05 183.76 20.19 C 164.42 9.57 142.10 4.77 120.11 5.80 Z" />
<path fill="#ffffff" opacity="1.00" d=" M 91.53 59.95 C 101.95 57.93 112.81 66.31 113.58 76.89 C 114.79 86.14 108.06 95.40 99.06 97.47 C 94.55 97.97 89.62 98.16 85.57 95.76 C 79.59 92.50 75.22 85.96 75.44 79.02 C 75.05 69.80 82.43 61.21 91.53 59.95 Z" />
</g>
<g id="#050a5bff">
<path fill="#050a5b" opacity="1.00" d=" M 120.11 5.80 C 142.10 4.77 164.42 9.57 183.76 20.19 C 207.51 33.05 226.60 54.29 236.81 79.29 C 245.95 101.26 248.10 125.98 243.37 149.27 C 238.52 173.22 226.03 195.53 208.14 212.17 C 189.38 229.87 164.64 241.17 138.95 243.61 C 118.26 245.84 96.98 242.58 77.93 234.16 C 51.41 222.59 29.51 200.89 17.66 174.50 C 8.17 153.92 5.18 130.63 8.18 108.23 C 12.03 79.83 26.63 53.02 48.46 34.44 C 68.26 17.22 93.95 7.20 120.11 5.80 M 91.53 59.95 C 82.43 61.21 75.05 69.80 75.44 79.02 C 75.22 85.96 79.59 92.50 85.57 95.76 C 89.62 98.16 94.55 97.97 99.06 97.47 C 108.06 95.40 114.79 86.14 113.58 76.89 C 112.81 66.31 101.95 57.93 91.53 59.95 M 153.22 60.12 C 151.08 61.24 149.13 63.38 149.46 65.96 C 149.48 74.61 149.42 83.27 149.48 91.92 C 149.35 94.23 150.81 96.32 152.76 97.43 C 156.43 97.83 160.14 98.33 163.82 97.83 C 169.90 97.63 175.99 97.89 182.07 97.74 C 185.08 98.03 187.98 95.15 187.64 92.12 C 187.68 83.40 187.65 74.67 187.65 65.94 C 188.13 62.35 184.47 59.26 181.04 59.64 C 173.37 59.64 165.71 59.67 158.04 59.63 C 156.44 59.75 154.70 59.37 153.22 60.12 M 81.21 116.15 C 77.78 116.97 75.22 120.48 75.45 124.00 C 75.48 144.03 75.45 164.07 75.47 184.11 C 75.25 187.03 77.11 189.78 79.58 191.20 C 82.51 192.66 85.87 192.23 89.03 192.28 C 94.75 192.16 100.48 192.44 106.19 192.17 C 109.97 191.90 113.41 188.70 113.59 184.86 C 113.78 177.18 113.53 169.49 113.68 161.81 C 113.74 158.92 115.60 156.27 118.09 154.90 C 121.54 153.44 125.31 153.93 128.94 153.97 C 134.43 153.44 139.98 154.21 145.46 153.52 C 148.47 152.49 150.85 149.37 150.62 146.11 C 150.67 138.73 150.65 131.35 150.63 123.97 C 151.08 119.34 146.48 115.41 142.02 115.70 C 123.33 115.69 104.64 115.73 85.95 115.68 C 84.36 115.70 82.74 115.68 81.21 116.15 Z" />
</g>
<g id="#00ffb9ff">
<path fill="#00ffb9" opacity="1.00" d=" M 153.22 60.12 C 154.70 59.37 156.44 59.75 158.04 59.63 C 165.71 59.67 173.37 59.64 181.04 59.64 C 184.47 59.26 188.13 62.35 187.65 65.94 C 187.65 74.67 187.68 83.40 187.64 92.12 C 187.98 95.15 185.08 98.03 182.07 97.74 C 175.99 97.89 169.90 97.63 163.82 97.83 C 160.14 98.33 156.43 97.83 152.76 97.43 C 150.81 96.32 149.35 94.23 149.48 91.92 C 149.42 83.27 149.48 74.61 149.46 65.96 C 149.13 63.38 151.08 61.24 153.22 60.12 Z" />
</g>
<g id="#00dafeff">
<path fill="#00dafe" opacity="1.00" d=" M 81.21 116.15 C 82.74 115.68 84.36 115.70 85.95 115.68 C 104.64 115.73 123.33 115.69 142.02 115.70 C 146.48 115.41 151.08 119.34 150.63 123.97 C 150.65 131.35 150.67 138.73 150.62 146.11 C 150.85 149.37 148.47 152.49 145.46 153.52 C 139.98 154.21 134.43 153.44 128.94 153.97 C 125.31 153.93 121.54 153.44 118.09 154.90 C 115.60 156.27 113.74 158.92 113.68 161.81 C 113.53 169.49 113.78 177.18 113.59 184.86 C 113.41 188.70 109.97 191.90 106.19 192.17 C 100.48 192.44 94.75 192.16 89.03 192.28 C 85.87 192.23 82.51 192.66 79.58 191.20 C 77.11 189.78 75.25 187.03 75.47 184.11 C 75.45 164.07 75.48 144.03 75.45 124.00 C 75.22 120.48 77.78 116.97 81.21 116.15 Z" />
</g>
</svg>

<?xml version="1.0" encoding="utf-8"?>
<!-- Generator: Adobe Illustrator 26.0.3, SVG Export Plug-In . SVG Version: 6.00 Build 0)  -->
<svg version="1.1" id="Layer_1" xmlns="http://www.w3.org/2000/svg" xmlns:xlink="http://www.w3.org/1999/xlink" x="0px" y="0px"
	 viewBox="0 0 249 250" style="enable-background:new 0 0 249 250;" xml:space="preserve">
<style type="text/css">
	.st0{fill:#FFFFFF;}
	.st1{fill:#050A5B;}
	.st2{fill:#00FFB9;}
	.st3{fill:#00DAFE;}
</style>
<g id="_x23_ffffffff">
	<path class="st0" d="M91.5,60c10.4-2,21.3,6.4,22.1,16.9c1.2,9.2-5.5,18.5-14.5,20.6c-4.5,0.5-9.4,0.7-13.5-1.7
		c-6-3.3-10.3-9.8-10.1-16.7C75.1,69.8,82.4,61.2,91.5,60z"/>
</g>
<g id="_x23_050a5bff">
	<path class="st1" d="M120.1,5.8c22-1,44.3,3.8,63.6,14.4c23.8,12.9,42.8,34.1,53.1,59.1c9.1,22,11.3,46.7,6.6,70
		c-4.8,23.9-17.3,46.3-35.2,62.9c-18.8,17.7-43.5,29-69.2,31.4c-20.7,2.2-42-1-61-9.4c-26.5-11.6-48.4-33.3-60.3-59.7
		c-9.5-20.6-12.5-43.9-9.5-66.3C12,79.8,26.6,53,48.5,34.4C68.3,17.2,93.9,7.2,120.1,5.8 M91.5,60c-9.1,1.3-16.5,9.9-16.1,19.1
		c-0.2,6.9,4.1,13.5,10.1,16.7c4.1,2.4,9,2.2,13.5,1.7c9-2.1,15.7-11.3,14.5-20.6C112.8,66.3,101.9,57.9,91.5,60 M153.2,60.1
		c-2.1,1.1-4.1,3.3-3.8,5.8c0,8.7,0,17.3,0,26c-0.1,2.3,1.3,4.4,3.3,5.5c3.7,0.4,7.4,0.9,11.1,0.4c6.1-0.2,12.2,0.1,18.2-0.1
		c3,0.3,5.9-2.6,5.6-5.6c0-8.7,0-17.5,0-26.2c0.5-3.6-3.2-6.7-6.6-6.3c-7.7,0-15.3,0-23,0C156.4,59.8,154.7,59.4,153.2,60.1
		 M81.2,116.2c-3.4,0.8-6,4.3-5.8,7.8c0,20,0,40.1,0,60.1c-0.2,2.9,1.6,5.7,4.1,7.1c2.9,1.5,6.3,1,9.4,1.1
		c5.7-0.1,11.5,0.2,17.2-0.1c3.8-0.3,7.2-3.5,7.4-7.3c0.2-7.7-0.1-15.4,0.1-23.1c0.1-2.9,1.9-5.5,4.4-6.9c3.5-1.5,7.2-1,10.9-0.9
		c5.5-0.5,11,0.2,16.5-0.4c3-1,5.4-4.2,5.2-7.4c0.1-7.4,0-14.8,0-22.1c0.4-4.6-4.2-8.6-8.6-8.3c-18.7,0-37.4,0-56.1,0
		C84.4,115.7,82.7,115.7,81.2,116.2z"/>
</g>
<g id="_x23_00ffb9ff">
	<path class="st2" d="M153.2,60.1c1.5-0.8,3.2-0.4,4.8-0.5c7.7,0,15.3,0,23,0c3.4-0.4,7.1,2.7,6.6,6.3c0,8.7,0,17.5,0,26.2
		c0.3,3-2.6,5.9-5.6,5.6c-6.1,0.2-12.2-0.1-18.2,0.1c-3.7,0.5-7.4,0-11.1-0.4c-1.9-1.1-3.4-3.2-3.3-5.5c-0.1-8.7,0-17.3,0-26
		C149.1,63.4,151.1,61.2,153.2,60.1z"/>
</g>
<g id="_x23_00dafeff">
	<path class="st3" d="M81.2,116.2c1.5-0.5,3.2-0.5,4.7-0.5c18.7,0.1,37.4,0,56.1,0c4.5-0.3,9.1,3.6,8.6,8.3c0,7.4,0,14.8,0,22.1
		c0.2,3.3-2.1,6.4-5.2,7.4c-5.5,0.7-11-0.1-16.5,0.4c-3.6,0-7.4-0.5-10.9,0.9c-2.5,1.4-4.3,4-4.4,6.9c-0.2,7.7,0.1,15.4-0.1,23.1
		c-0.2,3.8-3.6,7-7.4,7.3c-5.7,0.3-11.4,0-17.2,0.1c-3.2-0.1-6.5,0.4-9.4-1.1c-2.5-1.4-4.3-4.2-4.1-7.1c0-20,0-40.1,0-60.1
		C75.2,120.5,77.8,117,81.2,116.2z"/>
</g>
</svg>
